public/Logomark.svg

<svg width="38" height="38" viewBox="0 0 38 38" fill="none" xmlns="http://www.w3.org/2000/svg">
<g filter="url(#filter0_dd_13001_401)">
<rect x="3.1" y="2.1" width="31.8" height="31.8" rx="7.9" fill="white"/>
<rect x="3.1" y="2.1" width="31.8" height="31.8" rx="7.9" fill="url(#paint0_linear_13001_401)"/>
<rect x="3.1" y="2.1" width="31.8" height="31.8" rx="7.9" stroke="#D0D5DD" stroke-width="0.2"/>
<path d="M18.3546 13.1828C22.7105 11.4504 27.4742 12.8185 29.6373 14.9133C30.106 15.3671 30.5041 15.8275 30.845 16.2852C31.0394 15.2107 31.0552 14.1405 30.8681 13.1055C30.1847 9.32649 26.6195 7.18561 23.4233 8.29149C20.2415 9.3924 19.0005 11.5321 19.0005 11.5321C19.0005 11.5321 17.7595 9.3924 14.5777 8.29149C11.3812 7.18561 7.81603 9.32672 7.1328 13.1055C6.62842 15.8944 7.58356 18.9392 9.61033 21.6298C10.0372 21.7732 10.4847 21.8809 10.9586 21.9431C13.7978 22.3163 14.8184 21.557 16.0178 21.0486C16.8142 20.7113 17.4134 21.0942 17.3843 21.3626C17.3392 21.7786 15.7693 22.4895 16.106 22.6388C17.4351 23.2285 19.0718 23.2334 20.3053 22.18C21.838 20.8712 22.4114 21.7659 22.4114 21.7659C22.4114 21.7659 21.6502 23.7076 19.3581 24.6717C17.4457 25.4761 15.4419 25.6743 13.6107 25.4683C15.19 26.5846 17.0035 27.5204 19.0005 28.1883C24.7099 26.2784 28.9276 22.1871 30.4145 17.9096C29.4072 16.9157 28.1716 16.2996 26.6988 16.0763C23.8674 15.6471 22.8322 16.3863 21.6228 16.8708C20.8198 17.1926 20.2285 16.7978 20.263 16.5299C20.3161 16.1148 21.8999 15.4351 21.5661 15.279C20.249 14.6633 18.6125 14.626 17.3585 15.6549C15.8003 16.9332 15.2446 16.0274 15.2446 16.0274C15.2446 16.0274 16.0438 14.1015 18.3546 13.1828ZM17.2709 18.5052H18.3709V17.4052H19.6296V18.5052H20.7296V19.7639H19.6296V20.8639H18.3709V19.7639H17.2709V18.5052Z" fill="url(#paint1_linear_13001_401)"/>
<path d="M17.2709 18.5052H18.3709V17.4052H19.6296V18.5052H20.7295V19.7639H19.6378C21.2597 20.5834 24.2383 21.8027 27.8177 22.3451C28.9956 20.9517 29.8813 19.4428 30.4143 17.9096C29.4069 16.9157 28.1713 16.2996 26.6986 16.0763C23.8672 15.647 22.8319 16.3863 21.6226 16.8708C20.8196 17.1926 20.2282 16.7978 20.2627 16.5299C20.3159 16.1148 21.8997 15.4351 21.5659 15.279C20.2488 14.6633 18.6123 14.626 17.3583 15.6548C15.8 16.9332 15.2443 16.0274 15.2443 16.0274C15.2443 16.0274 16.0438 14.1013 18.3543 13.1823C22.7102 11.4499 27.4739 12.818 29.637 14.9128C30.1057 15.3666 30.5038 15.8271 30.8447 16.2847C31.0392 15.2102 31.055 14.14 30.8679 13.105C30.1844 9.326 26.6192 7.18512 23.423 8.291C20.2412 9.39191 19.0002 11.5316 19.0002 11.5316C19.0002 11.5316 17.7592 9.39191 14.5774 8.291C12.7519 7.65927 10.8067 8.0883 9.34619 9.27521C10.0323 10.7442 10.836 12.1168 13.1254 14.8773C14.9868 17.1222 17.2709 18.5052 17.2709 18.5052Z" fill="url(#paint2_linear_13001_401)"/>
<path opacity="0.31" d="M27.277 9.64954C24.2712 8.13944 21.169 10.4892 20.1851 11.7299C21.882 11.3725 23.3668 11.1892 25.2457 11.5839C28.0252 12.1679 29.0654 13.1715 30.3064 14.6542C30.0871 11.9069 28.3519 10.1896 27.277 9.64954Z" fill="url(#paint3_linear_13001_401)"/>
</g>
<defs>
<filter id="filter0_dd_13001_401" x="0" y="0" width="38" height="38" filterUnits="userSpaceOnUse" color-interpolation-filters="sRGB">
<feFlood flood-opacity="0" result="BackgroundImageFix"/>
<feColorMatrix in="SourceAlpha" type="matrix" values="0 0 0 0 0 0 0 0 0 0 0 0 0 0 0 0 0 0 127 0" result="hardAlpha"/>
<feOffset dy="1"/>
<feGaussianBlur stdDeviation="1"/>
<feColorMatrix type="matrix" values="0 0 0 0 0.0627451 0 0 0 0 0.0941176 0 0 0 0 0.156863 0 0 0 0.06 0"/>
<feBlend mode="normal" in2="BackgroundImageFix" result="effect1_dropShadow_13001_401"/>
<feColorMatrix in="SourceAlpha" type="matrix" values="0 0 0 0 0 0 0 0 0 0 0 0 0 0 0 0 0 0 127 0" result="hardAlpha"/>
<feOffset dy="1"/>
<feGaussianBlur stdDeviation="1.5"/>
<feColorMatrix type="matrix" values="0 0 0 0 0.0627451 0 0 0 0 0.0941176 0 0 0 0 0.156863 0 0 0 0.1 0"/>
<feBlend mode="normal" in2="effect1_dropShadow_13001_401" result="effect2_dropShadow_13001_401"/>
<feBlend mode="normal" in="SourceGraphic" in2="effect2_dropShadow_13001_401" result="shape"/>
</filter>
<linearGradient id="paint0_linear_13001_401" x1="19" y1="2" x2="19" y2="34" gradientUnits="userSpaceOnUse">
<stop stop-color="white"/>
<stop offset="1" stop-color="#D0D5DD"/>
</linearGradient>
<linearGradient id="paint1_linear_13001_401" x1="10.1989" y1="24.2137" x2="27.8347" y2="6.57791" gradientUnits="userSpaceOnUse">
<stop stop-color="#0076C1"/>
<stop offset="0.0737" stop-color="#0B82C6"/>
<stop offset="0.2766" stop-color="#269ED3"/>
<stop offset="0.4546" stop-color="#36AFDA"/>
<stop offset="0.587" stop-color="#3CB5DD"/>
</linearGradient>
<linearGradient id="paint2_linear_13001_401" x1="10.1388" y1="24.2537" x2="27.8274" y2="6.56509" gradientUnits="userSpaceOnUse">
<stop stop-color="#00A482"/>
<stop offset="1" stop-color="#79DD83"/>
</linearGradient>
<linearGradient id="paint3_linear_13001_401" x1="24.8608" y1="13.5073" x2="28.5288" y2="10.1132" gradientUnits="userSpaceOnUse">
<stop stop-color="#00A482"/>
<stop offset="1" stop-color="#79DD83"/>
</linearGradient>
</defs>
</svg>

<svg xmlns="http://www.w3.org/2000/svg" width="38" height="38" fill="none" viewBox="0 0 38 38"><g filter="url(#a)"><rect width="31.8" height="31.8" x="3.1" y="2.1" fill="#fff" rx="7.9"/><rect width="31.8" height="31.8" x="3.1" y="2.1" fill="url(#b)" rx="7.9"/><rect width="31.8" height="31.8" x="3.1" y="2.1" stroke="#d0d5dd" stroke-width=".2" rx="7.9"/><path fill="url(#c)" d="M18.355 13.183c4.355-1.733 9.12-.364 11.282 1.73.469.454.867.915 1.208 1.372a8.9 8.9 0 0 0 .023-3.18c-.683-3.779-4.248-5.92-7.445-4.814-3.181 1.101-4.422 3.241-4.422 3.241s-1.242-2.14-4.423-3.24c-3.197-1.106-6.762 1.035-7.445 4.813-.505 2.79.45 5.834 2.477 8.525.427.143.875.25 1.349.313 2.839.373 3.86-.386 5.059-.894.796-.338 1.395.045 1.366.314-.045.416-1.615 1.127-1.278 1.276 1.33.59 2.966.594 4.2-.459 1.532-1.309 2.105-.414 2.105-.414s-.76 1.942-3.053 2.906c-1.912.804-3.916 1.002-5.747.796a20.8 20.8 0 0 0 5.39 2.72c5.709-1.91 9.927-6 11.414-10.278-1.008-.994-2.243-1.61-3.716-1.834-2.832-.429-3.867.31-5.076.795-.803.322-1.395-.073-1.36-.341.053-.415 1.637-1.095 1.303-1.251-1.317-.616-2.953-.653-4.207.376-1.559 1.278-2.114.372-2.114.372s.799-1.926 3.11-2.844m-1.084 5.322h1.1v-1.1h1.259v1.1h1.1v1.259h-1.1v1.1h-1.26v-1.1h-1.1z"/><path fill="url(#d)" d="M17.27 18.505h1.1v-1.1h1.26v1.1h1.1v1.259h-1.092c1.622.82 4.6 2.039 8.18 2.581 1.178-1.393 2.063-2.902 2.596-4.435-1.007-.994-2.243-1.61-3.715-1.834-2.832-.429-3.867.31-5.076.795-.803.322-1.395-.073-1.36-.341.053-.415 1.637-1.095 1.303-1.251-1.317-.616-2.954-.653-4.208.376-1.558 1.278-2.114.372-2.114.372s.8-1.926 3.11-2.845c4.356-1.732 9.12-.364 11.283 1.73.469.455.867.915 1.208 1.373a8.9 8.9 0 0 0 .023-3.18c-.684-3.779-4.249-5.92-7.445-4.814-3.182 1.1-4.423 3.24-4.423 3.24s-1.24-2.14-4.423-3.24c-1.825-.632-3.77-.203-5.23.984.685 1.47 1.489 2.842 3.778 5.602 1.862 2.245 4.146 3.628 4.146 3.628"/><path fill="url(#e)" d="M27.277 9.65c-3.006-1.51-6.108.84-7.092 2.08 1.697-.357 3.182-.54 5.06-.146 2.78.584 3.82 1.588 5.061 3.07-.219-2.747-1.954-4.464-3.029-5.004" opacity=".31"/></g><defs><linearGradient id="b" x1="19" x2="19" y1="2" y2="34" gradientUnits="userSpaceOnUse"><stop stop-color="#fff"/><stop offset="1" stop-color="#d0d5dd"/></linearGradient><linearGradient id="c" x1="10.199" x2="27.835" y1="24.214" y2="6.578" gradientUnits="userSpaceOnUse"><stop stop-color="#0076c1"/><stop offset=".074" stop-color="#0b82c6"/><stop offset=".277" stop-color="#269ed3"/><stop offset=".455" stop-color="#36afda"/><stop offset=".587" stop-color="#3cb5dd"/></linearGradient><linearGradient id="d" x1="10.139" x2="27.827" y1="24.254" y2="6.565" gradientUnits="userSpaceOnUse"><stop stop-color="#00a482"/><stop offset="1" stop-color="#79dd83"/></linearGradient><linearGradient id="e" x1="24.861" x2="28.529" y1="13.507" y2="10.113" gradientUnits="userSpaceOnUse"><stop stop-color="#00a482"/><stop offset="1" stop-color="#79dd83"/></linearGradient><filter id="a" width="38" height="38" x="0" y="0" color-interpolation-filters="sRGB" filterUnits="userSpaceOnUse"><feFlood flood-opacity="0" result="BackgroundImageFix"/><feColorMatrix in="SourceAlpha" result="hardAlpha" values="0 0 0 0 0 0 0 0 0 0 0 0 0 0 0 0 0 0 127 0"/><feOffset dy="1"/><feGaussianBlur stdDeviation="1"/><feColorMatrix values="0 0 0 0 0.0627451 0 0 0 0 0.0941176 0 0 0 0 0.156863 0 0 0 0.06 0"/><feBlend in2="BackgroundImageFix" result="effect1_dropShadow_13001_401"/><feColorMatrix in="SourceAlpha" result="hardAlpha" values="0 0 0 0 0 0 0 0 0 0 0 0 0 0 0 0 0 0 127 0"/><feOffset dy="1"/><feGaussianBlur stdDeviation="1.5"/><feColorMatrix values="0 0 0 0 0.0627451 0 0 0 0 0.0941176 0 0 0 0 0.156863 0 0 0 0.1 0"/><feBlend in2="effect1_dropShadow_13001_401" result="effect2_dropShadow_13001_401"/><feBlend in="SourceGraphic" in2="effect2_dropShadow_13001_401" result="shape"/></filter></defs></svg>
